build/svg/cmd/lc_imagebutton.svg

<?xml version="1.0" encoding="UTF-8" standalone="no"?>
<svg
   xmlns:dc="http://purl.org/dc/elements/1.1/"
   xmlns:cc="http://creativecommons.org/ns#"
   xmlns:rdf="http://www.w3.org/1999/02/22-rdf-syntax-ns#"
   xmlns:svg="http://www.w3.org/2000/svg"
   xmlns="http://www.w3.org/2000/svg"
   xmlns:xlink="http://www.w3.org/1999/xlink"
   xmlns:sodipodi="http://sodipodi.sourceforge.net/DTD/sodipodi-0.dtd"
   xmlns:inkscape="http://www.inkscape.org/namespaces/inkscape"
   height="24"
   viewBox="0 0 6.3499999 6.3500001"
   width="24"
   version="1.1"
   id="svg87"
   sodipodi:docname="lc_imagebutton.svg"
   inkscape:version="0.92.5 (2060ec1f9f, 2020-04-08)"
   inkscape:export-filename="/home/jupiter007/Libreoffice yaru theme fullcolor/build/cmd/lc_imagebutton.png"
   inkscape:export-xdpi="95"
   inkscape:export-ydpi="95">
  <metadata
     id="metadata93">
    <rdf:RDF>
      <cc:Work
         rdf:about="">
        <dc:format>image/svg+xml</dc:format>
        <dc:type
           rdf:resource="http://purl.org/dc/dcmitype/StillImage" />
      </cc:Work>
    </rdf:RDF>
  </metadata>
  <defs
     id="defs91" />
  <sodipodi:namedview
     pagecolor="#ffffff"
     bordercolor="#666666"
     borderopacity="1"
     objecttolerance="10"
     gridtolerance="10"
     guidetolerance="10"
     inkscape:pageopacity="0"
     inkscape:pageshadow="2"
     inkscape:window-width="1920"
     inkscape:window-height="1011"
     id="namedview89"
     showgrid="true"
     inkscape:zoom="27.812867"
     inkscape:cx="9.8878523"
     inkscape:cy="8.7399297"
     inkscape:window-x="1920"
     inkscape:window-y="32"
     inkscape:window-maximized="1"
     inkscape:current-layer="svg87">
    <inkscape:grid
       type="xygrid"
       id="grid926" />
  </sodipodi:namedview>
  <linearGradient
     id="a">
    <stop
       offset="0"
       stop-color="#f4f4f4"
       id="stop2" />
    <stop
       offset="1"
       stop-color="#dbdbdb"
       id="stop4" />
  </linearGradient>
  <linearGradient
     id="b"
     gradientUnits="userSpaceOnUse"
     x1="18.883095"
     x2="19.063079"
     xlink:href="#a"
     y1="5.397024"
     y2="19.635038"
     gradientTransform="matrix(0.17638977,0,0,0.17638977,0.39685227,0.47800525)" />
  <linearGradient
     id="c">
    <stop
       offset="0"
       stop-opacity=".339506"
       id="stop8" />
    <stop
       offset="1"
       stop-opacity=".246914"
       id="stop10" />
  </linearGradient>
  <linearGradient
     id="d"
     gradientUnits="userSpaceOnUse"
     x1="23.533221"
     x2="23.761144"
     xlink:href="#c"
     y1="19.730917"
     y2="4.86969"
     gradientTransform="matrix(0.17638977,0,0,0.17638977,0.39685227,0.47800525)" />
  <linearGradient
     id="e"
     gradientUnits="userSpaceOnUse"
     x1="25"
     x2="25.206056"
     y1="11.540002"
     y2="18.67625"
     gradientTransform="matrix(0.17638977,0,0,0.17638977,0.39685227,0.47800525)">
    <stop
       offset="0"
       stop-color="#fff"
       id="stop14" />
    <stop
       offset=".4001033"
       stop-color="#fff"
       stop-opacity=".235294"
       id="stop16" />
    <stop
       offset="1"
       stop-color="#fff"
       stop-opacity=".156863"
       id="stop18" />
    <stop
       offset="1"
       stop-color="#fff"
       stop-opacity=".392157"
       id="stop20" />
  </linearGradient>
  <linearGradient
     id="f"
     gradientUnits="userSpaceOnUse"
     x1="15.856916"
     x2="15.272812"
     xlink:href="#a"
     y1="6.343723"
     y2="17.05819"
     gradientTransform="matrix(0.17638977,0,0,0.17638977,0.39685227,0.47800525)" />
  <linearGradient
     id="g"
     gradientUnits="userSpaceOnUse"
     x1="10.895183"
     x2="10.598716"
     xlink:href="#c"
     y1="17.633464"
     y2="6.127996"
     gradientTransform="matrix(0.17638977,0,0,0.17638977,0.39685227,0.47800525)" />
  <linearGradient
     id="h"
     gradientUnits="userSpaceOnUse"
     x1="13.65678"
     x2="13.529662"
     y1="7.597205"
     y2="15.681951"
     gradientTransform="matrix(0.17638977,0,0,0.17638977,0.39685227,0.47800525)">
    <stop
       offset="0"
       stop-color="#fff"
       id="stop25" />
    <stop
       offset=".38875309"
       stop-color="#fff"
       stop-opacity=".235294"
       id="stop27" />
    <stop
       offset="1"
       stop-color="#fff"
       stop-opacity=".156863"
       id="stop29" />
    <stop
       offset="1"
       stop-color="#fff"
       stop-opacity=".392157"
       id="stop31" />
  </linearGradient>
  <linearGradient
     id="i"
     gradientUnits="userSpaceOnUse"
     x1="24.272545"
     x2="24.356573"
     xlink:href="#a"
     y1="8.965616"
     y2="24.881511"
     gradientTransform="matrix(0.17638977,0,0,0.17638977,-1.190656,0.30161545)" />
  <linearGradient
     id="j"
     gradientUnits="userSpaceOnUse"
     x1="14.684657"
     x2="14.19341"
     xlink:href="#c"
     y1="24.210359"
     y2="8.965616"
     gradientTransform="matrix(0.17638977,0,0,0.17638977,-1.190656,0.30161545)" />
  <linearGradient
     id="k"
     gradientUnits="userSpaceOnUse"
     x1="22"
     x2="21.971853"
     y1="16.040001"
     y2="22.526081"
     gradientTransform="matrix(0.17638977,0,0,0.17638977,-1.190656,0.30161545)">
    <stop
       offset="0"
       stop-color="#fff"
       id="stop36" />
    <stop
       offset=".35425553"
       stop-color="#fff"
       stop-opacity=".235294"
       id="stop38" />
    <stop
       offset="1"
       stop-color="#fff"
       stop-opacity=".156863"
       id="stop40" />
    <stop
       offset="1"
       stop-color="#fff"
       stop-opacity=".392157"
       id="stop42" />
  </linearGradient>
  <linearGradient
     id="l"
     gradientTransform="matrix(0.18108827,0,0,0.18108724,-14.101862,-49.226306)"
     gradientUnits="userSpaceOnUse"
     x1="105.47171"
     x2="105.47171"
     y1="283.47653"
     y2="303.33859">
    <stop
       offset="0"
       stop-color="#fff"
       id="stop45" />
    <stop
       offset=".06316455"
       stop-color="#fff"
       stop-opacity=".235294"
       id="stop47" />
    <stop
       offset=".95056331"
       stop-color="#fff"
       stop-opacity=".156863"
       id="stop49" />
    <stop
       offset="1"
       stop-color="#fff"
       stop-opacity=".392157"
       id="stop51" />
  </linearGradient>
  <linearGradient
     id="m"
     gradientTransform="matrix(0.64265169,0,0,0.18108724,-148.68849,-4.3167032)"
     gradientUnits="userSpaceOnUse"
     x1="236.1953"
     x2="236.1953"
     y1="35.803886"
     y2="53.803886">
    <stop
       offset="0"
       stop-color="#f4f4f4"
       stop-opacity=".746324"
       id="stop54" />
    <stop
       offset=".5"
       stop-color="#f7f7f7"
       id="stop56" />
    <stop
       offset="1"
       stop-color="#dcdcdc"
       id="stop58" />
  </linearGradient>
  <path
     inkscape:connector-curvature="0"
     id="path61"
     style="opacity:0.2;fill:none;stroke:#000000;stroke-width:0.26458335;stroke-linecap:round;stroke-linejoin:round"
     d="M 0.75904949,0.92344022 C 0.55840521,0.92365239 0.3967242,1.0849712 0.39687501,1.285617 l 0.002641,3.5137038 c 1.4543e-4,0.1934731 0.15069718,0.3490564 0.341307,0.3600551 l 4.85276939,0.00411 C 5.7942368,5.1632839 5.9559178,5.0019515 5.955767,4.8013057 L 5.9531251,1.2876018 C 5.9529799,1.0944641 5.8030271,0.93902456 5.6128791,0.92754676 Z" />
  <path
     inkscape:connector-curvature="0"
     style="fill:url(#m);stroke-width:0.68442422"
     id="path63"
     d="M 1.0242459,1.054439 C 0.82360437,1.0530702 0.66048212,1.2159837 0.66207137,1.4166158 l 0.0243682,3.0763362 c 0.001589,0.200639 0.16153302,0.3610817 0.36217453,0.3621699 l 4.3134375,0.025324 C 5.5626949,4.8818145 5.7258153,4.718901 5.7242261,4.5182689 L 5.69986,1.4419326 C 5.6974302,1.2413074 5.538327,1.0808441 5.3376855,1.0797627 Z" />
  <path
     inkscape:connector-curvature="0"
     style="fill:none;stroke:url(#l);stroke-width:0.26458335;stroke-linecap:round;stroke-linejoin:round"
     id="path65"
     d="M 5.4977452,1.204499 0.85087608,1.194709 C 0.75055318,1.19475 0.66975676,1.275471 0.66978883,1.3757939 l 0.001059,3.3139478 c -3.2052e-4,0.097188 0.0762993,0.1745213 0.17224507,0.1793192 l 4.6542962,0.011156 c 0.1003228,4.1e-5 0.1807556,-0.080769 0.1810872,-0.1810918 L 5.677416,1.3851802 C 5.677742,1.2853706 5.5973593,1.2052656 5.4977443,1.2044511 Z" />
  <path
     style="color:#000000;display:inline;overflow:visible;visibility:visible;opacity:1;fill:#6d6d6d;fill-opacity:1;fill-rule:nonzero;stroke:none;stroke-width:4.83797026;marker:none;enable-background:accumulate"
     d="m 2.38125,2.6458333 -0.79375,1.5875 H 4.4979167 L 3.571875,3.175 3.175,3.7041667 Z"
     id="path1099"
     inkscape:connector-curvature="0"
     sodipodi:nodetypes="cccccc" />
  <path
     style="opacity:1;vector-effect:none;fill:#6d6d6d;fill-opacity:1;stroke:none;stroke-width:0.79374999;stroke-linecap:round;stroke-linejoin:bevel;stroke-miterlimit:4;stroke-dasharray:none;stroke-dashoffset:0;stroke-opacity:1"
     id="path3397"
     sodipodi:type="arc"
     sodipodi:cx="4.1015491"
     sodipodi:cy="2.5112994"
     sodipodi:rx="0.39687499"
     sodipodi:ry="0.39687499"
     sodipodi:start="6.2325882"
     sodipodi:end="6.2319424"
     sodipodi:open="true"
     d="M 4.4979162,2.4912272 A 0.39687499,0.39687499 0 0 1 4.1216853,2.9076632 0.39687499,0.39687499 0 0 1 3.7051886,2.5314995 0.39687499,0.39687499 0 0 1 4.081285,2.1149421 0.39687499,0.39687499 0 0 1 4.4979032,2.4909712" />
</svg>

<svg xmlns="http://www.w3.org/2000/svg" height="24" viewBox="0 0 6.35 6.35" width="24"><linearGradient id="a"><stop offset="0" stop-color="#f4f4f4"/><stop offset="1" stop-color="#dbdbdb"/></linearGradient><linearGradient id="b"><stop offset="0" stop-opacity=".34"/><stop offset="1" stop-opacity=".247"/></linearGradient><linearGradient id="d" gradientTransform="matrix(.18109 0 0 .18109 -14.102 -49.226)" gradientUnits="userSpaceOnUse" x1="105.472" x2="105.472" y1="283.477" y2="303.339"><stop offset="0" stop-color="#fff"/><stop offset=".063" stop-color="#fff" stop-opacity=".235"/><stop offset=".951" stop-color="#fff" stop-opacity=".157"/><stop offset="1" stop-color="#fff" stop-opacity=".392"/></linearGradient><linearGradient id="c" gradientTransform="matrix(.64265 0 0 .18109 -148.688 -4.317)" gradientUnits="userSpaceOnUse" x1="236.195" x2="236.195" y1="35.804" y2="53.804"><stop offset="0" stop-color="#f4f4f4" stop-opacity=".746"/><stop offset=".5" stop-color="#f7f7f7"/><stop offset="1" stop-color="#dcdcdc"/></linearGradient><path d="M.759.923c-.2 0-.362.162-.362.363L.4 4.799c0 .194.15.35.34.36l4.854.004c.2 0 .362-.161.362-.362l-.003-3.513a.36.36 0 00-.34-.36z" opacity=".2" fill="none" stroke="#000" stroke-width=".265" stroke-linecap="round" stroke-linejoin="round"/><path d="M1.024 1.054a.36.36 0 00-.362.363l.024 3.076c.002.2.162.361.363.362l4.313.025a.36.36 0 00.362-.362L5.7 1.442a.364.364 0 00-.362-.362z" fill="url(#c)"/><path d="M5.498 1.204L.85 1.194a.18.18 0 00-.181.182V4.69a.18.18 0 00.173.18l4.654.01c.1 0 .181-.08.181-.18V1.384c0-.1-.08-.18-.18-.18z" fill="none" stroke="url(#d)" stroke-width=".265" stroke-linecap="round" stroke-linejoin="round"/><path style="marker:none" d="M2.381 2.646l-.793 1.587h2.91l-.926-1.058-.397.53z" color="#000" overflow="visible" fill="#6d6d6d"/><path d="M4.498 2.491a.397.397 0 01-.376.417.397.397 0 01-.417-.377.397.397 0 01.376-.416.397.397 0 01.417.376" fill="#6d6d6d"/></svg>
